src/components/Icon/icons/checkbox-circle.svg

<svg xmlns="http://www.w3.org/2000/svg" width="24" height="24">
  <path d="M45 .75C20.561.75.75 20.562.75 45S20.561 89.25 45 89.25c24.438 0 44.25-19.812 44.25-44.25S69.438.75 45 .75zm27.176 35.486l-32.86 32.859a1.385 1.385 0 0 1-1.956-.002L17.822 49.499a1.378 1.378 0 0 1 .002-1.954l6.816-6.797c.258-.258.609-.403.975-.403h.002c.365 0 .717.147.977.406l11.758 11.79 25.064-25.065a1.382 1.382 0 0 1 1.955 0l6.805 6.806c.258.259.406.61.406.977 0 .366-.148.718-.406.977z"/>
</svg>

<svg xmlns="http://www.w3.org/2000/svg" width="90" height="90" viewBox="0 0 90 90">
  <path d="M45,0.75 C20.561,0.75 0.75,20.562 0.75,45 C0.75,69.438 20.561,89.25 45,89.25 C69.438,89.25 89.25,69.438 89.25,45 C89.25,20.562 69.438,0.75 45,0.75 Z M72.176,36.236 L39.316,69.095 C39.056,69.354 38.705,69.5 38.339,69.5 C37.97,69.5 37.618,69.354 37.36,69.093 L17.822,49.499 C17.562,49.24 17.418,48.888 17.418,48.522 C17.418,48.155 17.564,47.804 17.824,47.545 L24.64,40.748 C24.898,40.49 25.249,40.345 25.615,40.345 C25.617,40.345 25.617,40.345 25.617,40.345 C25.982,40.345 26.334,40.492 26.594,40.751 L38.352,52.541 L63.416,27.476 C63.955,26.936 64.83,26.936 65.371,27.476 L72.176,34.282 C72.434,34.541 72.582,34.892 72.582,35.259 C72.582,35.625 72.434,35.977 72.176,36.236 Z"/>
</svg>
